X:1
T:Title
%%score { ( 1 3 ) | ( 2 4 ) }
L:1/8
M:6/8
K:Eb
V:1 treble nm="Grand Piano"
V:3 treble 
V:2 bass 
V:4 bass 
V:1
 z3 z2[Q:1/4=78] [EG]/[FA]/ | [GB]>[_G=A][=GB] [_Ac][GB][_G=A] | [GB]3 [EG]2 [EG]/[FA]/ | %3
 [GB]>[_G=A][=GB] [_Ac][GB][EG] | [DF]3- [DF]2 [DF]/[EG]/ | [FA]>[=EG][FA] [Ac][GB][FA] | %6
 G B2 z B[Ge] | d>cB cG[CE=A] |[M:5/8] B-B- B3 |[M:1/8] B/e/ |[M:3/4] d6 | e6 | %12
 [Ec]>[DB] [Ec][Ee] [Ed][Ec] | [EB]4- [EB][EG]/[FA]/ | [GB]>[_G=A] [=GB][_Gc] [Gd][Ge] | %15
 [Ge]3 B2 E/[EF]/ | [EG][EB] [CEA][B,EG]/[B,DG]/- [B,DG][A,DF] |[M:5/8] [G,E]-[G,E]- [G,E]3 |] %18
V:2
 z3 z2 [E,B,]/[E,B,]/ | [E,E]>[E,E][E,E] [E,E][E,E][E,C] | [E,E]3 [E,B,]2 [E,B,]/[E,B,]/ | %3
 [E,E]>[E,E][E,E] [E,E][E,E][E,B,] | [B,,B,]3- [B,,B,]2 [B,,B,]/[B,,B,]/ | %5
 [B,,B,]>[B,,B,][B,,B,] [B,,B,][C,B,][D,B,] | [E,B,E] [E,G,E]2 z [E,G,E][E,B,] | %7
 [F,B,F]>[F,EF][F,DF] [F,=A,E][F,CE]F,, |[M:5/8] z A,G, F,2 |[M:1/8][K:treble] G/G/ |[M:3/4] A6 | %11
 G6[K:bass] | [A,,A,]>[A,,A,] [A,,A,][A,,C] [A,,B,][C,A,] | [E,G,]4- [E,G,][E,B,]/[E,B,]/ | %14
 [E,E]>[E,C] [E,B,][E,=A,] [D,A,][C,A,] | [E,B,]3 [E,G,E]2 [C,G,]/[C,=A,]/ | %16
 [B,,B,][B,,G,] B,,B,,/B,,/- B,,B,, |[M:5/8] E,-E,- E,3 |] %18
V:3
 x6 | x6 | x6 | x6 | x6 | x6 | x6 | x6 |[M:5/8] [B,D]FG A2 |[M:1/8] x |[M:3/4] z F F F2 c/B/ | %11
 z E E B,2 B/B/ | x6 | x6 | x6 | x6 | x6 |[M:5/8] x5 |] %18
V:4
 x6 | x6 | x6 | x6 | x6 | x6 | x6 | x6 |[M:5/8] B,,-B,,- B,,3 |[M:1/8][K:treble] x | %10
[M:3/4] z B, B, B,2 A/A/ | z[K:bass] E, E, E,2 [E,G,E]/[E,G,E]/ | x6 | x6 | x6 | x6 | x6 | %17
[M:5/8] x5 |] %18

